app/img/logo-min.svg

<svg width="78" height="31" viewBox="0 0 78 31" fill="none" xmlns="http://www.w3.org/2000/svg">
<path d="M5.17563 28.5455C5.17563 27.9898 4.98495 27.5213 4.60903 27.1345C4.23312 26.7477 3.77549 26.557 3.24158 26.557C2.7567 26.557 2.3372 26.7096 1.98308 27.0201C1.63441 27.3252 1.41649 27.6956 1.33477 28.1369H0.817205V26.6387H0V30.4523H0.817205V28.8997H1.33477C1.41649 29.3627 1.63441 29.755 1.98308 30.0655C2.33176 30.3761 2.75126 30.5341 3.24158 30.5341C3.77549 30.5341 4.23312 30.3434 4.60903 29.9566C4.98495 29.5752 5.17563 29.1012 5.17563 28.5455ZM4.35842 28.5455C4.35842 28.9051 4.24946 29.2047 4.03154 29.439C3.80817 29.6787 3.54667 29.7986 3.24158 29.7986C2.93649 29.7986 2.67498 29.6787 2.45706 29.439C2.23369 29.2047 2.12473 28.9051 2.12473 28.5455C2.12473 28.186 2.23369 27.8863 2.45706 27.6466C2.67498 27.4123 2.93649 27.2925 3.24158 27.2925C3.54667 27.2925 3.80817 27.4123 4.03154 27.6466C4.24946 27.8863 4.35842 28.186 4.35842 28.5455Z" fill="white"/>
<path d="M6.48047 26.6389V30.4526H7.29767V29.1995H8.08764C8.4799 29.1995 8.80678 29.0742 9.06284 28.8291C9.31889 28.5839 9.44965 28.2788 9.44965 27.9192C9.44965 27.5542 9.31889 27.2546 9.06284 27.004C8.80133 26.7588 8.4799 26.6389 8.08764 26.6389H6.48047ZM8.0604 27.3744C8.22384 27.3744 8.36004 27.4289 8.469 27.5324C8.57796 27.6359 8.63244 27.7667 8.63244 27.9192C8.63244 28.0718 8.57796 28.2025 8.469 28.306C8.36004 28.4096 8.22384 28.464 8.0604 28.464H7.29767V27.3744H8.0604Z" fill="white"/>
<path d="M14.1306 30.4526V26.6389H13.4224L11.5428 29.0633V26.6389H10.7256V30.4526H11.4338L13.3134 28.0282V30.4526H14.1306Z" fill="white"/>
<path d="M15.1621 29.7171V31.2425H15.9793V30.4526H18.2675V31.2425H19.0847V29.7171H18.6216V26.6389H15.9793V27.8103C15.9793 28.0663 15.9575 28.306 15.9139 28.5294C15.8704 28.7582 15.8213 28.938 15.7723 29.0742C15.7178 29.205 15.6579 29.3248 15.5871 29.4392C15.5162 29.5482 15.4726 29.619 15.4454 29.6517C15.4127 29.6789 15.3964 29.7062 15.38 29.7171H15.1621ZM16.7965 27.8103V27.3744H17.8044V29.7171H16.1972L16.2626 29.6517C16.3007 29.6081 16.3498 29.5373 16.4097 29.4338C16.4696 29.3303 16.5241 29.2104 16.584 29.0742C16.644 28.938 16.693 28.7528 16.7311 28.5294C16.7747 28.306 16.7965 28.0663 16.7965 27.8103Z" fill="white"/>
<path d="M23.656 30.4526V26.6389H22.9478L21.0682 29.0633V26.6389H20.251V30.4526H20.9592L22.8388 28.0282V30.4526H23.656Z" fill="white"/>
<path d="M25.9412 26.6389H25.124V27.8103C25.124 28.2679 25.2439 28.622 25.4836 28.8726C25.7288 29.1287 26.0611 29.254 26.486 29.254C26.851 29.254 27.1507 29.1832 27.385 29.0361V30.4526H28.2022V26.6389H27.385V28.2461L27.2923 28.3169C27.2324 28.3605 27.1398 28.4041 27.0145 28.4531C26.8892 28.4967 26.7584 28.5185 26.6222 28.5185C26.4043 28.5185 26.2354 28.4586 26.1156 28.3387C26.0012 28.2134 25.9412 28.0391 25.9412 27.8103V26.6389Z" fill="white"/>
<path d="M32.9924 26.6389H32.1752V28.1644H30.5408V26.6389H29.7236V30.4526H30.5408V28.8999H32.1752V30.4526H32.9924V26.6389Z" fill="white"/>
<path d="M36.4772 28.8454H35.551L36.0141 27.5924L36.4772 28.8454ZM36.7496 29.5536L37.0765 30.4526H37.9482L36.45 26.6389H35.5783L34.0801 30.4526H34.9518L35.2786 29.5536H36.7496Z" fill="white"/>
<path d="M41.5115 26.6389H40.6943V30.4526H41.5115V29.363L42.0019 28.8182L43.1187 30.4526H44.0721L42.5467 28.2189L43.9632 26.6389H43.0098L41.5115 28.3006V26.6389Z" fill="white"/>
<path d="M45.7312 28.5455C45.7312 28.1969 45.851 27.8972 46.0907 27.6575C46.325 27.4123 46.6137 27.2925 46.957 27.2925C47.3002 27.2925 47.5889 27.4123 47.8232 27.6575C48.0629 27.8972 48.1828 28.1969 48.1828 28.5455C48.1828 28.8997 48.0629 29.1939 47.8232 29.4336C47.5889 29.6787 47.3002 29.7986 46.957 29.7986C46.6137 29.7986 46.325 29.6787 46.0907 29.4336C45.851 29.1939 45.7312 28.8997 45.7312 28.5455ZM44.8867 28.5455C44.8867 29.0903 45.0883 29.5643 45.486 29.9511C45.8837 30.3379 46.374 30.5341 46.957 30.5341C47.5399 30.5341 48.0302 30.3379 48.4279 29.9511C48.8256 29.5643 49.0272 29.0903 49.0272 28.5455C49.0272 27.9953 48.8256 27.5268 48.4279 27.1399C48.0302 26.7531 47.5399 26.557 46.957 26.557C46.374 26.557 45.8837 26.7531 45.486 27.1399C45.0883 27.5268 44.8867 27.9953 44.8867 28.5455Z" fill="white"/>
<path d="M52.3741 28.3006L51.0665 26.6389H50.3311V30.4526H51.1483V27.9192L52.3741 29.4719L53.5999 27.9083V30.4526H54.4171V26.6389H53.6925L52.3741 28.3006Z" fill="white"/>
<path d="M59.1801 26.6389H55.9385V30.4526H56.7557V27.3744H58.3629V30.4526H59.1801V26.6389Z" fill="white"/>
<path d="M62.6647 28.8454H61.7385L62.2016 27.5924L62.6647 28.8454ZM62.9371 29.5536L63.264 30.4526H64.1357L62.6375 26.6389H61.7658L60.2676 30.4526H61.1393L61.4661 29.5536H62.9371Z" fill="white"/>
<path d="M68.4915 26.6389H67.6743V28.1644H66.0399V26.6389H65.2227V30.4526H66.0399V28.8999H67.6743V30.4526H68.4915V26.6389Z" fill="white"/>
<path d="M70.8309 26.6389H70.0137V30.4526H70.8309V26.6389Z" fill="white"/>
<path d="M75.1863 26.6389H73.4974C73.1161 26.6389 72.8055 26.7588 72.5604 26.9985C72.3152 27.2382 72.1899 27.5379 72.1899 27.892C72.1899 28.0445 72.2172 28.1862 72.2607 28.3224C72.3098 28.4586 72.3642 28.5621 72.4296 28.6384C72.4896 28.7146 72.5549 28.7855 72.6367 28.8508C72.7129 28.9162 72.7674 28.9598 72.8001 28.9762C72.8273 28.987 72.8546 29.0034 72.8709 29.0088L72.0537 30.4526H72.9254L73.6609 29.1178H74.3691V30.4526H75.1863V26.6389ZM73.0071 27.892C73.0071 27.7394 73.0561 27.6196 73.1542 27.5215C73.2523 27.4235 73.3776 27.3744 73.5247 27.3744H74.3691V28.3823H73.5247C73.3776 28.3823 73.2523 28.3333 73.1542 28.2407C73.0561 28.1481 73.0071 28.0282 73.0071 27.892Z" fill="white"/>
<path d="M2.49057 6.10352e-05H0V17.9875H2.49057V11.3143C2.49057 10.1854 2.77137 9.29483 3.33296 8.66766C3.89456 8.04048 4.66371 7.71435 5.61598 7.71435C6.43396 7.71435 7.11765 8.01539 7.66704 8.5924C8.21643 9.18194 8.49722 9.92201 8.49722 10.8126V18.0001H11V10.8126C11 9.15686 10.5483 7.85233 9.64484 6.87393C8.7414 5.89553 7.55716 5.40633 6.11654 5.40633C5.70144 5.40633 5.28635 5.45651 4.88346 5.5694C4.46837 5.68229 4.13873 5.80773 3.87014 5.94571C3.60155 6.08368 3.34517 6.23421 3.11321 6.40982C2.88124 6.58543 2.72253 6.71086 2.64928 6.78612C2.57603 6.86138 2.51498 6.91156 2.49057 6.94919V6.10352e-05Z" fill="#F0145A"/>
<path d="M16.5675 0H14V17.9725H16.5675V0Z" fill="white"/>
<path d="M31.7113 12.7088L31.8396 11.425C31.8396 9.70482 31.2748 8.26702 30.1194 7.11165C28.964 5.95627 27.5262 5.39142 25.806 5.39142C24.0858 5.39142 22.5966 6.00762 21.3642 7.24002C20.1318 8.47242 19.5156 9.9359 19.5156 11.6818C19.5156 13.4791 20.1575 15.0196 21.4156 16.3033C22.6737 17.5871 24.1885 18.2289 25.9344 18.2289C26.6019 18.2289 27.2181 18.1262 27.8343 17.9465C28.4505 17.7411 28.964 17.5357 29.3235 17.3303C29.7086 17.0992 30.0937 16.8425 30.4275 16.5601C30.7613 16.2776 30.9924 16.0722 31.0951 15.9439C31.1978 15.8155 31.2748 15.7385 31.3261 15.6614L29.6573 13.9926L29.2721 14.4804C29.0154 14.7885 28.5789 15.0966 27.9627 15.4304C27.3208 15.7641 26.6533 15.9182 25.9344 15.9182C24.9331 15.9182 24.0858 15.6101 23.3669 14.9682C22.648 14.3263 22.2115 13.5818 22.0831 12.7088H31.7113ZM25.806 7.5738C26.756 7.5738 27.5262 7.85622 28.1681 8.3954C28.7843 8.96025 29.1694 9.65347 29.3235 10.5264H22.1858C22.4169 9.65347 22.8277 8.96025 23.4696 8.3954C24.0858 7.85622 24.8817 7.5738 25.806 7.5738Z" fill="white"/>
<path d="M43.6853 17.2276C43.6853 18.3573 43.3515 19.2816 42.6583 20.0005C41.9908 20.6937 41.1435 21.0532 40.0908 21.0532C39.6286 21.0532 39.1665 20.9762 38.73 20.8478C38.2935 20.7194 37.9598 20.5654 37.6773 20.3856C37.3949 20.2059 37.1382 20.0262 36.8814 19.7951C36.6503 19.564 36.4963 19.41 36.4193 19.333C36.3422 19.2559 36.2909 19.1789 36.2395 19.1276L34.5707 20.7964L34.7761 21.0532C34.9044 21.2329 35.1355 21.464 35.4436 21.7207C35.7517 21.9518 36.1112 22.2086 36.522 22.4653C36.9328 22.6964 37.4463 22.9018 38.0881 23.0815C38.73 23.2612 39.3976 23.3639 40.0908 23.3639C41.8367 23.3639 43.2745 22.7734 44.4812 21.5924C45.6623 20.3856 46.2528 18.9478 46.2528 17.2019V5.64817H43.6853V6.93192L43.2488 6.54679C42.9664 6.29004 42.5299 6.03329 41.9137 5.77654C41.2975 5.51979 40.63 5.39142 39.9624 5.39142C38.3962 5.39142 37.0611 5.98194 35.9058 7.18867C34.7504 8.3954 34.1855 9.8332 34.1855 11.5534C34.1855 13.2736 34.7504 14.7114 35.9058 15.9182C37.0611 17.1249 38.3962 17.7154 39.9624 17.7154C40.3989 17.7154 40.8097 17.6641 41.2462 17.5614C41.657 17.433 41.9908 17.3046 42.2732 17.1763C42.5556 17.0479 42.8124 16.8938 43.0434 16.7141C43.2745 16.5344 43.4542 16.406 43.5056 16.3547L43.6853 16.1749V17.2276ZM36.753 11.5534C36.753 10.4751 37.0868 9.57645 37.78 8.83187C38.4733 8.0873 39.2949 7.70217 40.2192 7.70217C41.1435 7.70217 41.9651 8.0873 42.6583 8.83187C43.3259 9.57645 43.6853 10.4751 43.6853 11.5534C43.6853 12.6318 43.3259 13.5304 42.6583 14.275C41.9651 15.0195 41.1435 15.4047 40.2192 15.4047C39.2949 15.4047 38.4733 15.0195 37.78 14.275C37.0868 13.5304 36.753 12.6318 36.753 11.5534Z" fill="white"/>
<path d="M59.6542 17.9722V10.0129C59.6542 8.7035 59.1663 7.59947 58.2164 6.72652C57.2664 5.82789 56.034 5.39142 54.5192 5.39142C53.9286 5.39142 53.3381 5.46844 52.7733 5.62249C52.2084 5.80222 51.7463 5.98194 51.4125 6.18734C51.0787 6.39274 50.7449 6.62382 50.4368 6.90625C50.1287 7.163 49.949 7.34272 49.8463 7.44542C49.7693 7.54812 49.6922 7.62515 49.6409 7.70217L51.3098 9.37105L51.6436 8.93457C51.849 8.65215 52.2084 8.3954 52.7476 8.11297C53.2868 7.83055 53.8773 7.70217 54.5192 7.70217C55.2637 7.70217 55.8799 7.93325 56.3678 8.36972C56.8556 8.8062 57.0867 9.37105 57.0867 10.0129L52.5935 10.7832C51.4895 10.9629 50.5909 11.3994 49.9747 12.0926C49.3328 12.7858 48.999 13.6331 48.999 14.6344C48.999 15.5844 49.4098 16.406 50.2314 17.1249C51.0787 17.8695 52.1057 18.2289 53.3638 18.2289C53.8003 18.2289 54.2111 18.1776 54.6219 18.0492C55.0583 17.9465 55.3921 17.8181 55.6745 17.6898C55.957 17.5614 56.2137 17.4073 56.4448 17.2276C56.6759 17.0479 56.8299 16.9195 56.9326 16.8682C57.0096 16.7911 57.061 16.7141 57.0867 16.6884V17.9722H59.6542ZM53.7489 15.9182C53.0814 15.9182 52.5422 15.7641 52.1571 15.456C51.7463 15.1479 51.5665 14.7885 51.5665 14.3777C51.5665 13.9412 51.6949 13.5561 51.9773 13.2737C52.2598 12.9912 52.6449 12.7858 53.107 12.7088L57.0867 12.0669V12.3237C57.0867 13.4791 56.8042 14.352 56.2137 14.9939C55.6232 15.6101 54.8016 15.9182 53.7489 15.9182Z" fill="white"/>
<path d="M65.3204 0H62.7529V17.9725H65.3204V0Z" fill="white"/>
<path d="M76.9946 7.0603L76.8406 6.88057C76.7379 6.77787 76.5838 6.64949 76.3527 6.46977C76.1217 6.29004 75.8649 6.13599 75.5825 5.95627C75.3001 5.80222 74.9149 5.67384 74.4528 5.54547C73.9906 5.44277 73.5028 5.39142 73.015 5.39142C71.7569 5.39142 70.7299 5.75087 69.9083 6.46977C69.061 7.21435 68.6502 8.03595 68.6502 8.98592C68.6502 9.67915 68.8043 10.244 69.1124 10.7575C69.4205 11.2453 69.8056 11.6048 70.2934 11.8102C70.7556 12.0413 71.2691 12.2723 71.8083 12.4521C72.3474 12.6318 72.8353 12.7858 73.3231 12.9142C73.7852 13.0683 74.1704 13.248 74.4785 13.4791C74.7866 13.7101 74.9406 14.0182 74.9406 14.3777C74.9406 14.8398 74.7609 15.225 74.4271 15.5074C74.0933 15.7641 73.5798 15.9182 72.8866 15.9182C72.3218 15.9182 71.7569 15.7641 71.2177 15.5074C70.6785 15.225 70.3448 14.9939 70.165 14.8142C70.011 14.6344 69.8826 14.4804 69.8056 14.3777L68.1367 16.0466L68.3164 16.2776C68.4448 16.4317 68.6245 16.6114 68.8813 16.8168C69.1637 17.0479 69.4718 17.2533 69.8056 17.4587C70.165 17.6641 70.6272 17.8438 71.1664 17.9979C71.7056 18.1519 72.2961 18.2289 72.8866 18.2289C74.2474 18.2289 75.3771 17.8438 76.2244 17.0992C77.0716 16.3547 77.5081 15.4304 77.5081 14.3777C77.5081 13.6845 77.3541 13.0939 77.046 12.6318C76.7379 12.144 76.3527 11.7845 75.8649 11.5534C75.4028 11.2967 74.8893 11.0913 74.3501 10.9115C73.8109 10.7318 73.3231 10.5521 72.8353 10.4494C72.3731 10.321 71.988 10.1156 71.6799 9.88455C71.3718 9.65347 71.2177 9.34537 71.2177 8.98592C71.2177 8.65215 71.3718 8.34405 71.7056 8.0873C72.0137 7.83055 72.4501 7.70217 73.015 7.70217C73.4258 7.70217 73.8366 7.80487 74.2217 7.9846C74.6325 8.16432 74.9149 8.31837 75.0433 8.44675C75.1717 8.57512 75.2744 8.67782 75.3257 8.72917L76.9946 7.0603Z" fill="white"/>
</svg>

<svg width="78" height="31" fill="none" xmlns="http://www.w3.org/2000/svg"><path d="M5.176 28.546a1.95 1.95 0 00-.567-1.412 1.836 1.836 0 00-1.367-.577c-.485 0-.905.153-1.259.463a1.913 1.913 0 00-.648 1.117H.817v-1.498H0v3.813h.817V28.9h.518c.081.463.3.855.648 1.166.349.31.768.468 1.259.468.533 0 .991-.19 1.367-.577a1.94 1.94 0 00.567-1.412zm-.818 0c0 .36-.109.659-.326.893a1.043 1.043 0 01-1.575 0c-.223-.234-.332-.534-.332-.893 0-.36.109-.66.332-.9.218-.234.48-.354.785-.354.305 0 .566.12.79.355.217.24.326.539.326.899zm2.122-1.907v3.814h.818V29.2h.79c.392 0 .719-.126.975-.37.256-.246.387-.551.387-.91 0-.366-.131-.665-.387-.916-.262-.245-.583-.365-.975-.365H6.48zm1.58.735c.164 0 .3.055.409.158a.514.514 0 01.163.387.514.514 0 01-.163.387.572.572 0 01-.409.158h-.762v-1.09h.762zm6.07 3.079v-3.814h-.708l-1.88 2.424V26.64h-.816v3.814h.708l1.88-2.425v2.425h.817zm1.032-.736v1.526h.817v-.79h2.288v.79h.818v-1.526h-.463V26.64h-2.643v1.171c0 .256-.021.496-.065.72a3.645 3.645 0 01-.142.544c-.054.131-.114.25-.185.365-.07.11-.114.18-.142.213-.032.027-.049.054-.065.065h-.218zm1.635-1.907v-.436h1.007v2.343h-1.607l.066-.065c.038-.044.087-.115.147-.218.06-.104.114-.224.174-.36.06-.136.109-.321.147-.545.044-.223.066-.463.066-.719zm6.859 2.643v-3.814h-.708l-1.88 2.424V26.64h-.817v3.814h.708l1.88-2.425v2.425h.817zm2.285-3.814h-.817v1.171c0 .458.12.812.36 1.063.245.256.577.381 1.002.381.365 0 .665-.07.899-.218v1.417h.817v-3.814h-.817v1.607l-.093.07a1.185 1.185 0 01-.67.202c-.218 0-.387-.06-.506-.18-.115-.125-.175-.299-.175-.528v-1.17zm7.051 0h-.817v1.525h-1.634V26.64h-.817v3.814h.817V28.9h1.634v1.553h.817v-3.814zm3.485 2.206h-.926l.463-1.253.463 1.253zm.273.709l.327.899h.871l-1.498-3.814h-.872l-1.498 3.814h.872l.327-.9h1.47zm4.761-2.915h-.817v3.814h.817v-1.09l.49-.545 1.118 1.635h.953l-1.525-2.234 1.416-1.58h-.953L41.512 28.3v-1.662zm4.22 1.907c0-.35.12-.649.36-.889.234-.245.523-.364.866-.364.343 0 .632.12.866.364.24.24.36.54.36.889 0 .354-.12.648-.36.888a1.149 1.149 0 01-.866.365c-.343 0-.632-.12-.866-.365-.24-.24-.36-.534-.36-.889zm-.844 0a1.9 1.9 0 00.599 1.405c.398.387.888.583 1.471.583.583 0 1.073-.196 1.47-.583a1.9 1.9 0 00.6-1.405c0-.55-.201-1.02-.6-1.406-.397-.387-.887-.583-1.47-.583s-1.073.196-1.471.583a1.89 1.89 0 00-.6 1.405zm7.487-.246l-1.308-1.661h-.735v3.814h.817v-2.534l1.226 1.553 1.226-1.564v2.545h.817v-3.814h-.724l-1.32 1.661zm6.806-1.661h-3.242v3.814h.818v-3.079h1.607v3.079h.817v-3.814zm3.485 2.206h-.926l.463-1.253.463 1.253zm.272.709l.327.899h.872l-1.498-3.814h-.872l-1.498 3.814h.871l.327-.9h1.471zm5.555-2.915h-.818v1.525H66.04V26.64h-.817v3.814h.817V28.9h1.634v1.553h.817v-3.814zm2.338 0h-.816v3.814h.817v-3.814zm4.356 0h-1.689c-.38 0-.692.12-.937.36-.245.24-.37.539-.37.893 0 .152.027.294.07.43.05.137.104.24.17.316.06.077.125.147.207.213.076.065.13.109.163.125.027.011.055.027.07.033l-.816 1.444h.871l.736-1.335h.708v1.335h.817v-3.814zm-2.179 1.253a.506.506 0 01.518-.518h.844v1.008h-.844a.524.524 0 01-.37-.141.465.465 0 01-.148-.349z" fill="#fff"/><path d="M2.49 0H0v17.988h2.49v-6.674c0-1.129.281-2.02.843-2.646.562-.628 1.33-.954 2.283-.954.818 0 1.502.301 2.051.878.55.59.83 1.33.83 2.22V18H11v-7.187c0-1.656-.452-2.96-1.355-3.94-.904-.977-2.088-1.467-3.528-1.467-.416 0-.83.05-1.234.163a5.199 5.199 0 00-1.013.377 5.138 5.138 0 00-.757.464c-.232.175-.39.3-.464.376-.073.075-.134.126-.158.163V0z" fill="#F0145A"/><path d="M16.567 0H14v17.973h2.567V0zm15.144 12.709l.129-1.284c0-1.72-.565-3.158-1.72-4.313-1.156-1.156-2.594-1.72-4.314-1.72-1.72 0-3.21.616-4.442 1.848-1.232 1.232-1.848 2.696-1.848 4.442 0 1.797.642 3.338 1.9 4.621 1.258 1.284 2.773 1.926 4.518 1.926.668 0 1.284-.103 1.9-.282.617-.206 1.13-.411 1.49-.617a8.47 8.47 0 001.103-.77c.334-.282.565-.488.668-.616.103-.129.18-.206.231-.283l-1.669-1.668-.385.487c-.257.309-.693.617-1.31.95a4.3 4.3 0 01-2.028.488c-1 0-1.848-.308-2.567-.95-.719-.642-1.155-1.386-1.284-2.26h9.628zm-5.905-5.135c.95 0 1.72.282 2.362.821.616.565 1.001 1.258 1.155 2.131h-7.137c.23-.873.642-1.566 1.284-2.13.616-.54 1.412-.822 2.336-.822zm17.879 9.654c0 1.13-.334 2.054-1.027 2.772-.667.694-1.514 1.053-2.567 1.053-.462 0-.925-.077-1.361-.205a4.039 4.039 0 01-1.053-.462 5.954 5.954 0 01-.796-.59c-.23-.232-.385-.386-.462-.463-.077-.077-.128-.154-.18-.205l-1.668 1.668.205.257c.128.18.36.411.668.668.308.23.667.488 1.078.744.41.231.924.437 1.566.616a7.4 7.4 0 002.003.283c1.746 0 3.184-.59 4.39-1.772 1.181-1.206 1.772-2.644 1.772-4.39V5.648h-2.568v1.284l-.436-.385c-.283-.257-.72-.514-1.335-.77a5.085 5.085 0 00-1.952-.386c-1.566 0-2.9.59-4.056 1.798-1.156 1.206-1.72 2.644-1.72 4.364 0 1.72.564 3.158 1.72 4.365 1.155 1.207 2.49 1.797 4.056 1.797.437 0 .848-.05 1.284-.154a8.626 8.626 0 001.027-.385 3.83 3.83 0 00.77-.462c.232-.18.411-.308.463-.36l.18-.18v1.054zm-6.932-5.675c0-1.078.334-1.977 1.027-2.721.693-.745 1.515-1.13 2.44-1.13.924 0 1.745.385 2.438 1.13.668.744 1.027 1.643 1.027 2.721 0 1.079-.36 1.977-1.027 2.722-.693.745-1.514 1.13-2.439 1.13-.924 0-1.746-.385-2.439-1.13-.693-.745-1.027-1.643-1.027-2.722zm22.901 6.419v-7.96c0-1.309-.488-2.413-1.438-3.285-.95-.9-2.182-1.336-3.697-1.336-.59 0-1.18.077-1.746.231-.565.18-1.027.36-1.36.565a6.35 6.35 0 00-.976.72 8.012 8.012 0 00-.59.538c-.078.103-.155.18-.206.257l1.669 1.67.334-.437c.205-.283.564-.54 1.104-.822.539-.282 1.13-.41 1.771-.41.745 0 1.36.23 1.849.667.488.436.719 1.001.719 1.643l-4.494.77c-1.104.18-2.002.616-2.618 1.31-.642.693-.976 1.54-.976 2.541 0 .95.41 1.772 1.232 2.49.848.745 1.875 1.105 3.133 1.105.436 0 .847-.051 1.258-.18a5.54 5.54 0 001.053-.36 3.85 3.85 0 00.77-.461c.23-.18.385-.309.488-.36.077-.077.128-.154.154-.18v1.284h2.567zm-5.905-2.054c-.668 0-1.207-.154-1.592-.462-.41-.308-.59-.667-.59-1.078 0-.437.128-.822.41-1.104a2.06 2.06 0 011.13-.565l3.98-.642v.257c0 1.155-.283 2.028-.873 2.67-.59.616-1.412.924-2.465.924zM65.32 0h-2.567v17.973h2.567V0zm11.675 7.06l-.154-.18a5.534 5.534 0 00-.488-.41c-.231-.18-.488-.334-.77-.514-.283-.154-.668-.282-1.13-.41a6.667 6.667 0 00-1.438-.155c-1.258 0-2.285.36-3.107 1.079-.847.744-1.258 1.566-1.258 2.516 0 .693.154 1.258.462 1.771.309.488.694.848 1.181 1.053.463.231.976.462 1.515.642.54.18 1.027.334 1.515.462.462.154.847.334 1.156.565.308.231.462.54.462.899 0 .462-.18.847-.514 1.13-.334.256-.847.41-1.54.41-.565 0-1.13-.154-1.67-.41-.538-.283-.872-.514-1.052-.694-.154-.18-.282-.334-.36-.436l-1.668 1.669.18.23c.128.155.308.334.564.54.283.23.59.436.925.642.359.205.821.385 1.36.539.54.154 1.13.23 1.72.23 1.361 0 2.491-.384 3.338-1.129.848-.744 1.284-1.669 1.284-2.721 0-.694-.154-1.284-.462-1.746-.308-.488-.693-.848-1.181-1.079a8.959 8.959 0 00-1.515-.642c-.54-.18-1.027-.359-1.515-.462a3.468 3.468 0 01-1.155-.564 1.085 1.085 0 01-.462-.9c0-.333.154-.641.488-.898.308-.256.744-.385 1.309-.385.41 0 .822.103 1.207.283.41.18.693.333.821.462l.283.282 1.669-1.669z" fill="#fff"/></svg>
